courses/react_empty.svg

<svg height="250" viewBox="0 0 500 250" width="500" xmlns="http://www.w3.org/2000/svg" xmlns:xlink="http://www.w3.org/1999/xlink"><defs><rect id="a" height="250" rx="8" width="500"/><mask id="b" fill="#fff"><use fill="#fff" fill-rule="evenodd" xlink:href="#a"/></mask></defs><g fill="none" fill-rule="evenodd"><use fill="#151515" xlink:href="#a"/><g mask="url(#b)" opacity=".5"><g transform="translate(201 19)"><circle cx="269.529" cy="237.628" fill="#00d8ff" fill-rule="nonzero" r="50.167"/><g fill="none" stroke="#00d8ff" stroke-width="24"><path d="m269.529 135.628c67.356 0 129.928 9.665 177.107 25.907 56.844 19.569 91.794 49.233 91.794 76.093 0 27.991-37.041 59.503-98.083 79.728-46.151 15.291-106.879 23.272-170.818 23.272-65.554 0-127.63-7.492-174.29-23.441-59.046-20.182-94.611-52.103-94.611-79.559 0-26.642 33.37-56.076 89.415-75.616 47.355-16.509 111.472-26.384 179.486-26.384z"/><path d="m180.736 186.922c33.649-58.348 73.281-107.724 110.92-140.48 45.35-39.466 88.507-54.923 111.775-41.505 24.248 13.983 33.042 61.814 20.067 124.796-9.81 47.618-33.234 104.212-65.176 159.601-32.749 56.788-70.25 106.819-107.377 139.272-46.981 41.068-92.4 55.929-116.185 42.213-23.079-13.31-31.906-56.921-20.834-115.233 9.355-49.27 32.832-109.745 66.81-168.664z"/><path d="m180.821 289.482c-33.746-58.292-56.731-117.287-66.312-166.255-11.544-58.999-3.382-104.109 19.864-117.566 24.224-14.024 70.055 2.244 118.14 44.94 36.356 32.28 73.688 80.837 105.723 136.173 32.844 56.733 57.461 114.209 67.036 162.582 12.117 61.213 2.309 107.984-21.453 121.74-23.057 13.348-65.249-.784-110.239-39.499-38.013-32.711-78.682-83.253-112.759-142.115z"/></g></g></g><ellipse cx="38.002905" cy="36.912252" fill="#00d8ff" fill-rule="nonzero" rx="5.026007" ry="5.048252" stroke="#979797"/><g stroke="#00d8ff" stroke-width="2.4" transform="translate(11 13)"><path d="m27.0029054 13.6481006c6.7480965 0 13.0169054.9725786 17.7435584 2.6069937 5.6949462 1.9692076 9.1964304 4.9542642 9.1964304 7.6571573 0 2.8167044-3.7109721 5.9877232-9.8264972 8.0229434-4.6236623 1.5387169-10.7077291 2.3418364-17.1134916 2.3418364-6.5675622 0-12.7866791-.7539119-17.46133583-2.3588427-5.91555473-2.0308931-9.47865306-5.2430692-9.47865306-8.0059371 0-2.680956 3.3431911-5.642868 8.95808906-7.6091573 4.74428573-1.661283 11.16788123-2.6549937 17.98189983-2.6549937z"/><path d="m18.1071317 18.809761c3.3711429-5.8714968 7.3416958-10.84015094 11.1125789-14.13635219 4.5434137-3.97142139 8.8671206-5.52684277 11.1982375-4.17660378 2.4292987 1.40709434 3.3103302 6.22027673 2.010423 12.55808807-.9828201 4.7917484-3.3295659 10.4867421-6.5296921 16.060478-3.2809758 5.7145157-7.0380334 10.7490817-10.7576215 14.0147924-4.7068163 4.132629-9.2571428 5.6280755-11.6400556 4.2478491-2.3121819-1.3393711-3.1965195-5.7278994-2.0872654-11.5957736.9372357-4.9579874 3.2892913-11.043522 6.6933952-16.972478z"/><path d="m18.1156475 29.1302642c-3.3808609-5.8658617-5.6836252-11.8024655-6.6435028-16.7300629-1.1565417-5.93700633-.3388274-10.4763774 1.9900854-11.83054092 2.4268942-1.41122013 7.0184972.22581132 11.8359183 4.52226415 3.6423451 3.24830189 7.3824713 8.13454087 10.5919147 13.70294337 3.2904935 5.7089812 5.7567606 11.4927296 6.7160371 16.3604529 1.213948 6.1597987.2313284 10.8663144-2.1492802 12.250566-2.3099777 1.343195-6.5370055-.0788931-11.0443525-3.9747421-3.8083525-3.291673-7.8827977-8.3776604-11.29682-14.3008805z"/></g></g></svg>

<?xml version="1.0" encoding="UTF-8"?>
<svg width="500px" height="250px" viewBox="0 0 500 250" version="1.1" xmlns="http://www.w3.org/2000/svg" xmlns:xlink="http://www.w3.org/1999/xlink">
    <!-- Generator: Sketch 53.2 (72643) - https://sketchapp.com -->
    <title>React Hooks for Beginners Copy</title>
    <desc>Created with Sketch.</desc>
    <defs>
        <rect id="path-1" x="0" y="0" width="500" height="250" rx="8"></rect>
    </defs>
    <g id="Page-1" stroke="none" stroke-width="1" fill="none" fill-rule="evenodd">
        <g id="React-Hooks-for-Beginners-Copy">
            <g id="react">
                <mask id="mask-2" fill="white">
                    <use xlink:href="#path-1"></use>
                </mask>
                <use id="Mask" fill="#151515" xlink:href="#path-1"></use>
                <g opacity="0.5" mask="url(#mask-2)">
                    <g transform="translate(201.000000, 19.000000)">
                        <circle id="Oval" stroke="none" fill="#00D8FF" fill-rule="nonzero" cx="269.529" cy="237.628" r="50.167"></circle>
                        <path d="M269.529,135.628 C336.885,135.628 399.457,145.293 446.636,161.535 C503.48,181.104 538.43,210.768 538.43,237.628 C538.43,265.619 501.389,297.131 440.347,317.356 C394.196,332.647 333.468,340.628 269.529,340.628 C203.975,340.628 141.899,333.136 95.239,317.187 C36.193,297.005 0.628,265.084 0.628,237.628 C0.628,210.986 33.998,181.552 90.043,162.012 C137.398,145.503 201.515,135.628 269.529,135.628 Z" id="Path" stroke="#00D8FF" stroke-width="24" fill="none"></path>
                        <path d="M180.736,186.922 C214.385,128.574 254.017,79.198 291.656,46.442 C337.006,6.976 380.163,-8.481 403.431,4.937 C427.679,18.92 436.473,66.751 423.498,129.733 C413.688,177.351 390.264,233.945 358.322,289.334 C325.573,346.122 288.072,396.153 250.945,428.606 C203.964,469.674 158.545,484.535 134.76,470.819 C111.681,457.509 102.854,413.898 113.926,355.586 C123.281,306.316 146.758,245.841 180.736,186.922 Z" id="Path" stroke="#00D8FF" stroke-width="24" fill="none"></path>
                        <path d="M180.821,289.482 C147.075,231.19 124.09,172.195 114.509,123.227 C102.965,64.228 111.127,19.118 134.373,5.661 C158.597,-8.363 204.428,7.905 252.513,50.601 C288.869,82.881 326.201,131.438 358.236,186.774 C391.08,243.507 415.697,300.983 425.272,349.356 C437.389,410.569 427.581,457.34 403.819,471.096 C380.762,484.444 338.57,470.312 293.58,431.597 C255.567,398.886 214.898,348.344 180.821,289.482 Z" id="Path" stroke="#00D8FF" stroke-width="24" fill="none"></path>
                    </g>
                </g>
            </g>
            <g id="react" transform="translate(11.000000, 13.000000)">
                <ellipse id="Oval" stroke="#979797" fill="#00D8FF" fill-rule="nonzero" cx="27.0029054" cy="23.9122516" rx="5.02600742" ry="5.04825157"></ellipse>
                <path d="M27.0029054,13.6481006 C33.7510019,13.6481006 40.0198108,14.6206792 44.7464638,16.2550943 C50.44141,18.2243019 53.9428942,21.2093585 53.9428942,23.9122516 C53.9428942,26.728956 50.2319221,29.8999748 44.116397,31.935195 C39.4927347,33.4739119 33.4086679,34.2770314 27.0029054,34.2770314 C20.4353432,34.2770314 14.2162263,33.5231195 9.54156957,31.9181887 C3.62601484,29.8872956 0.0629165121,26.6751195 0.0629165121,23.9122516 C0.0629165121,21.2312956 3.40610761,18.2693836 9.02100557,16.3030943 C13.7652913,14.6418113 20.1888868,13.6481006 27.0029054,13.6481006 Z" id="Path" stroke="#00D8FF" stroke-width="2.4"></path>
                <path d="M18.1071317,18.809761 C21.4782746,12.9382642 25.4488275,7.96961006 29.2197106,4.67340881 C33.7631243,0.701987421 38.0868312,-0.853433962 40.4179481,0.496805031 C42.8472468,1.90389937 43.7282783,6.71708176 42.4283711,13.0548931 C41.445551,17.8466415 39.0988052,23.5416352 35.898679,29.1153711 C32.6177032,34.8298868 28.8606456,39.8644528 25.1410575,43.1301635 C20.4342412,47.2627925 15.8839147,48.758239 13.5010019,47.3780126 C11.18882,46.0386415 10.3044824,41.6501132 11.4137365,35.782239 C12.3509722,30.8242516 14.7030278,24.738717 18.1071317,18.809761 Z" id="Path" stroke="#00D8FF" stroke-width="2.4"></path>
                <path d="M18.1156475,29.1302642 C14.7347866,23.2644025 12.4320223,17.3277987 11.4721447,12.4002013 C10.315603,6.46319497 11.1333173,1.9238239 13.4622301,0.569660377 C15.8891243,-0.841559748 20.4807273,0.795471698 25.2981484,5.09192453 C28.9404935,8.34022642 32.6806197,13.2264654 35.8900631,18.7948679 C39.1805566,24.5038491 41.6468237,30.2875975 42.6061002,35.1553208 C43.8200482,41.3151195 42.8374286,46.0216352 40.45682,47.4058868 C38.1468423,48.7490818 33.9198145,47.3269937 29.4124675,43.4311447 C25.604115,40.1394717 21.5296698,35.0534843 18.1156475,29.1302642 Z" id="Path" stroke="#00D8FF" stroke-width="2.4"></path>
            </g>
        </g>
    </g>
</svg>
